img/service-size-icon__13.svg

<svg width="25" height="25" viewBox="0 0 25 25" fill="none" xmlns="http://www.w3.org/2000/svg">
<path d="M24.9999 15.4276C24.9999 12.0888 23.6996 8.94978 21.3388 6.58886C19.4686 4.71871 17.11 3.51492 14.5507 3.09495V3.02537C14.5507 1.89457 13.6308 0.974609 12.5 0.974609C11.3692 0.974609 10.4492 1.89457 10.4492 3.02537V3.09495C7.89001 3.51492 5.53139 4.71871 3.66119 6.58886C1.30028 8.94978 9.76553e-05 12.0888 9.76553e-05 15.4276L0 21.6593C0 22.6318 0.558198 23.4672 1.45668 23.8394C2.35515 24.2115 3.34059 24.0155 4.02828 23.3278C6.28739 21.0687 9.29605 19.8245 12.5 19.8246C15.7039 19.8246 18.7126 21.0687 20.9717 23.3279C21.4289 23.7851 22.0179 24.025 22.6253 24.025C22.9314 24.025 23.2423 23.964 23.5433 23.8393C24.4418 23.4671 25 22.6318 25 21.6593L24.9999 15.4276ZM24.0233 15.4276V17.5808C23.0812 16.8101 22.0691 16.1396 20.996 15.5748V11.4238C20.996 9.29782 20.211 7.35184 18.9158 5.86021C21.9941 7.93108 24.0233 11.4467 24.0233 15.4276ZM12.5 1.95116C13.075 1.95116 13.5458 2.40531 13.5729 2.97376C13.218 2.94378 12.8602 2.92772 12.5 2.92772C12.1397 2.92772 11.782 2.94378 11.4271 2.97376C11.4541 2.40531 11.925 1.95116 12.5 1.95116ZM6.08412 5.86016C4.78892 7.35179 4.00396 9.29777 4.00396 11.4237V15.5748C2.93083 16.1396 1.91878 16.8101 0.976651 17.5808V15.4276C0.976651 11.4467 3.00588 7.93108 6.08412 5.86016ZM23.1696 22.9371C22.7568 23.1081 22.1441 23.1191 21.6622 22.6372C19.2187 20.1937 15.9648 18.848 12.5 18.848C9.03517 18.848 5.78129 20.1938 3.33771 22.6373C2.85593 23.119 2.243 23.1081 1.8304 22.9371C1.41761 22.7662 0.976553 22.3407 0.976553 21.6593V18.8673C2.46453 17.5288 4.15592 16.4693 6.00814 15.7182C7.40886 15.1502 8.8753 14.769 10.3668 14.585C10.6345 14.552 10.8247 14.3083 10.7917 14.0407C10.7586 13.773 10.5145 13.5829 10.2474 13.6158C8.67091 13.8102 7.12117 14.2131 5.6412 14.8132C5.41865 14.9034 5.19868 14.9986 4.98057 15.0973V11.4237C4.98057 7.27748 8.35378 3.90427 12.5 3.90427C16.6463 3.90427 20.0195 7.27748 20.0195 11.4237V15.0972C19.8014 14.9986 19.5814 14.9034 19.3588 14.8131C17.8789 14.2131 16.3292 13.8102 14.753 13.6158C14.4856 13.5832 14.2416 13.773 14.2087 14.0407C14.1756 14.3083 14.3659 14.5521 14.6335 14.585C16.1248 14.769 17.5912 15.1502 18.9919 15.7181C20.8442 16.4692 22.5355 17.5288 24.0235 18.8673V21.6593C24.0234 22.3407 23.5824 22.7662 23.1696 22.9371Z" fill="black"/>
<path d="M16.3175 11.7065C16.8935 11.1304 16.8935 10.1932 16.3175 9.61709C16.0384 9.33804 15.6674 9.18437 15.2728 9.18437C14.8781 9.18437 14.5071 9.33804 14.2281 9.61709L13.7971 10.048L13.1903 9.44121L14.5118 8.11969C14.7025 7.92902 14.7025 7.61984 14.5118 7.42912C14.3211 7.2385 14.012 7.2385 13.8212 7.42912L12.4998 8.75064L11.1783 7.42912C10.9876 7.23845 10.6785 7.2385 10.4877 7.42912C10.297 7.61979 10.297 7.92897 10.4877 8.11969L11.8092 9.44116L11.2024 10.048L10.7714 9.61704C10.4924 9.33799 10.1214 9.18428 9.72673 9.18428C9.33211 9.18428 8.96106 9.33794 8.68201 9.61704C8.10599 10.1931 8.10599 11.1304 8.68201 11.7065C8.98162 12.006 9.37991 12.171 9.80354 12.171C10.2272 12.171 10.6255 12.006 10.925 11.7065L12.4998 10.1316L14.0747 11.7064C14.3742 12.006 14.7725 12.171 15.1962 12.171C15.6198 12.171 16.0179 12.0061 16.3175 11.7065ZM10.2343 11.016C10.1192 11.1311 9.96618 11.1946 9.80339 11.1946C9.6406 11.1946 9.48752 11.1312 9.37244 11.016C9.17713 10.8207 9.17713 10.5029 9.37244 10.3077C9.46707 10.213 9.59285 10.1609 9.72663 10.1609C9.86042 10.1609 9.9862 10.213 10.0808 10.3077L10.5118 10.7386L10.2343 11.016ZM14.4876 10.7386L14.9186 10.3076C15.0132 10.213 15.139 10.1609 15.2728 10.1609C15.4066 10.1609 15.5323 10.213 15.627 10.3076C15.8223 10.5029 15.8223 10.8207 15.627 11.016C15.5119 11.1311 15.3588 11.1945 15.196 11.1945C15.0332 11.1945 14.8802 11.1311 14.7651 11.016L14.4876 10.7386Z" fill="black"/>
<path d="M12.4996 13.4782C12.3712 13.4782 12.2452 13.53 12.1544 13.6214C12.0636 13.7121 12.0113 13.8381 12.0113 13.9665C12.0113 14.0949 12.0635 14.2209 12.1544 14.3117C12.2453 14.4026 12.3712 14.4548 12.4996 14.4548C12.628 14.4548 12.754 14.4026 12.8448 14.3117C12.9356 14.2209 12.9879 14.0949 12.9879 13.9665C12.9879 13.8376 12.9357 13.7121 12.8448 13.6214C12.754 13.53 12.628 13.4782 12.4996 13.4782Z" fill="black"/>
</svg>

<svg width="25" height="25" fill="none" xmlns="http://www.w3.org/2000/svg"><path d="M25 15.428c0-3.34-1.3-6.478-3.661-8.84a12.407 12.407 0 00-6.788-3.493v-.07c0-1.13-.92-2.05-2.051-2.05-1.13 0-2.05.92-2.05 2.05v.07a12.407 12.407 0 00-6.79 3.494A12.418 12.418 0 000 15.428v6.231c0 .973.558 1.808 1.457 2.18a2.323 2.323 0 002.571-.511 11.9 11.9 0 018.472-3.503 11.9 11.9 0 018.472 3.503 2.327 2.327 0 002.571.511A2.323 2.323 0 0025 21.66v-6.231zm-.977 0v2.153a18.063 18.063 0 00-3.027-2.006v-4.151a8.46 8.46 0 00-2.08-5.564c3.078 2.071 5.107 5.587 5.107 9.568zM12.5 1.95c.575 0 1.046.454 1.073 1.023a12.743 12.743 0 00-2.146 0A1.075 1.075 0 0112.5 1.95zM6.084 5.86a8.46 8.46 0 00-2.08 5.563v4.15A18.063 18.063 0 00.977 17.58v-2.153c0-3.981 2.029-7.497 5.107-9.568zM23.17 22.936a1.364 1.364 0 01-1.508-.3 12.87 12.87 0 00-9.162-3.789 12.87 12.87 0 00-9.162 3.79 1.364 1.364 0 01-1.508.3 1.364 1.364 0 01-.853-1.279v-2.792a17.212 17.212 0 019.39-4.282.488.488 0 10-.12-.97 18.187 18.187 0 00-5.266 1.482v-3.673c0-4.147 3.373-7.52 7.519-7.52s7.52 3.373 7.52 7.52v3.673a18.19 18.19 0 00-5.267-1.481.489.489 0 00-.12.969c1.492.184 2.958.565 4.359 1.133a17.122 17.122 0 015.031 3.15v2.791c0 .682-.44 1.107-.853 1.278z" fill="#000"/><path d="M16.317 11.707a1.48 1.48 0 00-1.044-2.523c-.395 0-.766.154-1.045.433l-.43.431-.608-.607 1.322-1.321a.488.488 0 10-.69-.69L12.5 8.75l-1.322-1.32a.488.488 0 00-.69.69l1.321 1.321-.607.607-.43-.431a1.468 1.468 0 00-1.045-.433 1.48 1.48 0 00-1.045 2.522c.3.3.698.465 1.122.465.423 0 .822-.165 1.121-.464l1.575-1.575 1.575 1.574c.3.3.698.465 1.121.465.424 0 .822-.165 1.121-.464zm-6.083-.691a.605.605 0 01-.862 0 .501.501 0 01.709-.708l.43.43-.277.278zm4.254-.277l.43-.431a.498.498 0 01.709 0 .501.501 0 010 .708.606.606 0 01-.862 0l-.277-.277zM12.5 13.478a.49.49 0 00-.346.834.492.492 0 00.69 0 .49.49 0 00-.345-.834z" fill="#000"/></svg>
